X: 32852
T: Port Sadbh
R: jig
M: 6/8
K: Dmajor
AFE Fdc|BAF A2B|AFE FAB|EEF G3|
AFE Fdc|BAF ABc|dcA BFA|AGE D3:|
ABc cBA|dcB cA/A/A|ABc dcd|edc d3|
ABc cBA|dcB cAA|fge dcA|AGE D3:|
dFG dEE|dFB ABc|dFG dEE|FGE D3|
dFG dEE|dFB ABc|dec dFG|AGE D3:|

